assets/Salt/Flat/salt_flat.svg

<svg width="32" height="32" viewBox="0 0 32 32" fill="none" xmlns="http://www.w3.org/2000/svg">
<path d="M20.598 29.98H11.408C9.30798 29.98 7.69798 28.09 8.04798 26.02L10.488 11.36L16.003 9.375L21.518 11.36L23.958 26.01C24.298 28.09 22.698 29.98 20.598 29.98Z" fill="#AEDDFF"/>
<path d="M19.7078 17.86H12.2978C11.9178 17.86 11.5878 18.14 11.5278 18.51L10.4378 25.05C10.1978 26.5 11.3178 27.82 12.7878 27.82H19.2178C20.6878 27.82 21.8078 26.5 21.5678 25.05L20.4778 18.51C20.4078 18.14 20.0878 17.86 19.7078 17.86Z" fill="#F4F4F4"/>
<path d="M19.5079 2H12.4879C10.1779 2 8.45785 4.12 8.92785 6.38C9.07785 7.08 9.6875 7.58 10.4883 7.58L16.0039 9.14062L21.5195 7.58C22.3047 7.58 22.9279 7.08 23.0779 6.38C23.5479 4.12 21.8179 2 19.5079 2Z" fill="#D3D3D3"/>
<path d="M12.9878 4.18999C13.286 4.18999 13.5278 3.94822 13.5278 3.64999C13.5278 3.35175 13.286 3.10999 12.9878 3.10999C12.6895 3.10999 12.4478 3.35175 12.4478 3.64999C12.4478 3.94822 12.6895 4.18999 12.9878 4.18999Z" fill="#9B9B9B"/>
<path d="M19.0677 4.18999C19.366 4.18999 19.6077 3.94822 19.6077 3.64999C19.6077 3.35175 19.366 3.10999 19.0677 3.10999C18.7695 3.10999 18.5277 3.35175 18.5277 3.64999C18.5277 3.94822 18.7695 4.18999 19.0677 4.18999Z" fill="#9B9B9B"/>
<path d="M15.1178 5.39999C15.1178 5.69822 14.8761 5.93999 14.5778 5.93999C14.2796 5.93999 14.0378 5.69822 14.0378 5.39999C14.0378 5.10175 14.2796 4.85999 14.5778 4.85999C14.8761 4.85999 15.1178 5.10175 15.1178 5.39999Z" fill="#9B9B9B"/>
<path d="M18.0079 5.39999C18.0079 5.69822 17.7661 5.93999 17.4679 5.93999C17.1696 5.93999 16.9279 5.69822 16.9279 5.39999C16.9279 5.10175 17.1696 4.85999 17.4679 4.85999C17.7661 4.85999 18.0079 5.10175 18.0079 5.39999Z" fill="#9B9B9B"/>
<path d="M16.5678 3.64999C16.5678 3.94822 16.326 4.18999 16.0278 4.18999C15.7295 4.18999 15.4878 3.94822 15.4878 3.64999C15.4878 3.35175 15.7295 3.10999 16.0278 3.10999C16.326 3.10999 16.5678 3.35175 16.5678 3.64999Z" fill="#9B9B9B"/>
<path d="M10.4878 7.57996H21.5278V11.35H10.4878V7.57996Z" fill="#9B9B9B"/>
</svg>

<svg xmlns="http://www.w3.org/2000/svg" width="32" height="32" fill="none"><path fill="#AEDDFF" d="M20.598 29.98h-9.19c-2.1 0-3.71-1.89-3.36-3.96l2.44-14.66 5.515-1.985 5.515 1.985 2.44 14.65c.34 2.08-1.26 3.97-3.36 3.97Z"/><path fill="#F4F4F4" d="M19.708 17.86h-7.41c-.38 0-.71.28-.77.65l-1.09 6.54c-.24 1.45.88 2.77 2.35 2.77h6.43c1.47 0 2.59-1.32 2.35-2.77l-1.09-6.54a.792.792 0 0 0-.77-.65Z"/><path fill="#D3D3D3" d="M19.508 2h-7.02c-2.31 0-4.03 2.12-3.56 4.38.15.7.76 1.2 1.56 1.2l5.516 1.56 5.515-1.56c.786 0 1.409-.5 1.559-1.2.47-2.26-1.26-4.38-3.57-4.38Z"/><path fill="#9B9B9B" d="M12.988 4.19a.54.54 0 1 0 0-1.08.54.54 0 0 0 0 1.08ZM19.068 4.19a.54.54 0 1 0 0-1.08.54.54 0 0 0 0 1.08ZM15.118 5.4a.54.54 0 1 1-1.08 0 .54.54 0 0 1 1.08 0ZM18.008 5.4a.54.54 0 1 1-1.08 0 .54.54 0 0 1 1.08 0ZM16.568 3.65a.54.54 0 1 1-1.08 0 .54.54 0 0 1 1.08 0ZM10.488 7.58h11.04v3.77h-11.04V7.58Z"/></svg>
